X:1
T:Menuett
T:Joseph Haydn (1732-1809)
T:Menuett 
T:aus der Symphonie Nr.100 G-dur "Militarsymphonie", 3, Satz 
C:Joseph Haydn
%%score { ( 1 4 ) | ( 2 3 ) }
L:1/8
Q:1/4=100
M:3/4
K:G
V:1 treble nm="Piano" snm="Pno."
V:4 treble 
V:2 bass 
V:3 bass 
V:1
!f!"^Moderato" (!4!a/g/!ped!f/g/!ped-up! | .!1!d2) .d2 (!4!e/d/^c/d/ | .!1!B2) .B2 (!4!=c/B/A/G/ | %3
 .!2!F).!1!G.!3!^G.!1!A.!2!_B.!3!=B | c2 z2 (!4!d/c/B/d/ | .!5!a2) .a2 (!5!g/f/e/d/ | %6
 .c2) .c2 !4!c/B/A/G/ | .!2!A.!3!B.!1!c.d.e.f | !tenuto!g2 z2 ::!f! !4!g2 | (g2 !breath!f2) f2 | %11
 (f2 e2) e2 | (e2 d2) d2 | (!4!d2 ^c2) (!4!e/d/c/d/ | .!1!!4![Ae]2) .[Ae]2 (!4!e/d/^c/d/ | %15
 .[A^c]2) .[Ac]2!p! (!4!e/d/c/d/ | .[Ae]2) .[Ae]2 (e/d/^c/d/ | %17
 .!1!!2![A^c]2) .[Ac]2!f! (!4!d/c/B/A/) | (!3!!5![fa]2 [eg]2 !breath![df]2) | %19
 ([gb]2 [fa]2 !breath![eg]2) | (!4!g/f/e/f/ .!2!!4![eg]2) .!2!!3![^cf]2 | !1!d4!f! (!4!a/g/f/g/ | %22
 .!1!d2) .d2 (!4!e/d/^c/d/ | .!1!B2) .B2 (!4!=c/B/A/G/ | .!2!F).!1!G.^G.!1!A._B.=B | %25
 .c2 z2 (!4!d/c/B/!1!c/ | .!5!a2) .a2 (!5!g/f/e/d/ | .c2) .c2 (!4!c/B/A/G/ | .!2!A).B.!1!c.d.e.f | %29
 !tenuto!g2 z2 :| %30
V:2
 z2 | .!4!!2!!1![G,B,D]2 .[G,B,D]2 z2 | .[G,B,D]2 .[G,B,D]2 z2 | (!2!!1![A,C]4 !3!!1![G,=B,]2 | %4
 [D,F,A,]2) z2 z2 | .!5!!3!!1![D,F,C]2 .[D,F,C]2 z2 | %6
 .!4!!2!!1![^D,F,A,]2 .[D,F,A,]2 .!3!!1![E,G,]2 | .!3!!5![C,E,]2 z2 .!5!!2!!1![D,A,C]2 | %8
 !tenuto!!3!!1![G,B,]2 .G,,2 :: (!1!C/B,/A,/G,/) | .!3!A,.B,.C.!4!D.E.F | !1!G4 (!1!A,/G,/F,/E,/) | %12
 .!3!F,.G,.A,.B,.^C.D |[K:treble] !1!E4 !4!!2![DF]2 | !5!!1![^CG]4 !4!!2![DF]2 | %15
 !3!!1![EG]4 [DF]2 | [^CG]4 [DF]2 | [EG]4 z2 | .!5!D.E.F.G.A.!2!B | .!5!E.F.G.A.B.!2!^c | %20
 .!1!d2 .!4!!2![GB]2 .A2 | .!4!!2![DF]2[K:bass] .D,2 z2 | .!4!!2!!1![G,B,D]2 .[G,B,D]2 z2 | %23
 .[G,B,D]2 .[G,B,D]2 z2 | [A,C]4 [G,=B,]2 | [D,F,A,]2 z2 z2 | .!5!!3!!1![D,F,C]2 .[D,F,C]2 z2 | %27
 .!4!!2!!1![^D,F,A,]2 .[D,F,A,]2 .[E,G,]2 | .[C,E,]2 z2 .!5!!2!!1![D,A,C]2 | %29
 !tenuto!!3!!1![G,B,]2 .G,,2 :| %30
V:3
 x2 | x6 | x6 | !5!D,6 | x6 | x6 | x6 | x6 | x4 :: x2 | x6 | x6 | x6 |[K:treble] x6 | x6 | x6 | %16
 x6 | x6 | x6 | x6 | x6 | x2[K:bass] x4 | x6 | x6 | D,6 | x6 | x6 | x6 | x6 | x4 :| %30
V:4
 x2 | x6 | x6 | x6 | x6 | x6 | x6 | x6 | x4 :: x2 | c6 | B3 x3 | A3 x3 | !1!G3 x3 | z6 | x6 | x6 | %17
 x6 | x6 | x6 | x6 | x6 | x6 | x6 | x6 | x6 | x6 | x6 | x6 | x4 :| %30

